packages/foundations/assets/icons/functional/images/communication/paper_plane_16.svg

<svg width="16" height="16" viewBox="0 0 16 16" fill="none" xmlns="http://www.w3.org/2000/svg">
<g clip-path="url(#clip0_185_468)">
<path fill-rule="evenodd" clip-rule="evenodd" d="M14.1686 1.83132C14.3872 2.06554 14.4653 2.39337 14.3403 2.69003L9.84374 13.9004C9.71888 14.197 9.43781 14.4 9.10998 14.4C8.73522 14.3843 8.45415 14.1658 8.36054 13.8535L6.81483 9.18512L2.14644 7.63941C1.8342 7.5458 1.61564 7.24914 1.59998 6.92123C1.59998 6.57773 1.78735 6.28107 2.0996 6.15621L13.3099 1.65961C13.6066 1.53466 13.9344 1.61276 14.1686 1.83132ZM12.1857 3.81422L4.70699 6.81195L7.68913 7.79561C7.92336 7.88922 8.11073 8.06101 8.18875 8.31082L9.17241 11.293L12.1857 3.81422Z" fill="#1A1C1F"/>
</g>
<defs>
<clipPath id="clip0_185_468">
<rect width="16" height="16" fill="white"/>
</clipPath>
</defs>
</svg>

<svg xmlns="http://www.w3.org/2000/svg" width="16" height="16" fill="none"><g clip-path="url(#a)"><path fill="#1A1C1F" fill-rule="evenodd" d="M14.169 1.831a.8.8 0 0 1 .171.859L9.844 13.9a.8.8 0 0 1-.734.5c-.375-.016-.656-.234-.75-.546L6.816 9.185 2.146 7.64a.79.79 0 0 1-.546-.718c0-.343.187-.64.5-.765L13.31 1.66a.8.8 0 0 1 .859.171m-1.983 1.983L4.707 6.812l2.982.984a.82.82 0 0 1 .5.515l.983 2.982z" clip-rule="evenodd"/></g><defs><clipPath id="a"><path fill="#fff" d="M0 0h16v16H0z"/></clipPath></defs></svg>
